Newaita-dark/apps/16/google-play-music-desktop-player.svg

<?xml version="1.0" encoding="UTF-8"?>
<svg xmlns="http://www.w3.org/2000/svg" xmlns:xlink="http://www.w3.org/1999/xlink" width="16px" height="16px" viewBox="0 0 16 16" version="1.1">
<defs>
<radialGradient id="radial0" gradientUnits="userSpaceOnUse" cx="450.908936" cy="189.579361" fx="450.908936" fy="189.579361" r="21.166656" gradientTransform="matrix(0.0000000870852,-0.0390662,-0.0703192,-0.0000000507693,22.261576,31.797665)">
<stop offset="0" style="stop-color:rgb(0%,0%,0%);stop-opacity:0.313726;"/>
<stop offset="0.222222" style="stop-color:rgb(0%,0%,0%);stop-opacity:0.27451;"/>
<stop offset="1" style="stop-color:rgb(0%,0%,0%);stop-opacity:0;"/>
</radialGradient>
<radialGradient id="radial1" gradientUnits="userSpaceOnUse" cx="450.908936" cy="189.579361" fx="450.908936" fy="189.579361" r="21.166656" gradientTransform="matrix(-0.0000000870852,0.0390662,0.0703192,0.0000000507693,-6.385059,-3.763741)">
<stop offset="0" style="stop-color:rgb(0%,0%,0%);stop-opacity:0.313726;"/>
<stop offset="0.222222" style="stop-color:rgb(0%,0%,0%);stop-opacity:0.27451;"/>
<stop offset="1" style="stop-color:rgb(0%,0%,0%);stop-opacity:0;"/>
</radialGradient>
<radialGradient id="radial2" gradientUnits="userSpaceOnUse" cx="450.908936" cy="189.579361" fx="450.908936" fy="189.579361" r="21.166656" gradientTransform="matrix(-0.0000000870852,-0.0390662,0.0703192,-0.0000000507693,-6.385059,31.797665)">
<stop offset="0" style="stop-color:rgb(0%,0%,0%);stop-opacity:0.313726;"/>
<stop offset="0.222222" style="stop-color:rgb(0%,0%,0%);stop-opacity:0.27451;"/>
<stop offset="1" style="stop-color:rgb(0%,0%,0%);stop-opacity:0;"/>
</radialGradient>
<radialGradient id="radial3" gradientUnits="userSpaceOnUse" cx="450.908936" cy="189.579361" fx="450.908936" fy="189.579361" r="21.166656" gradientTransform="matrix(0.0000000870852,0.0390662,-0.0703192,0.0000000507693,22.261575,-3.763741)">
<stop offset="0" style="stop-color:rgb(0%,0%,0%);stop-opacity:0.313726;"/>
<stop offset="0.222222" style="stop-color:rgb(0%,0%,0%);stop-opacity:0.27451;"/>
<stop offset="1" style="stop-color:rgb(0%,0%,0%);stop-opacity:0;"/>
</radialGradient>
<linearGradient id="linear0" gradientUnits="userSpaceOnUse" x1="255.323059" y1="233.5" x2="255.323044" y2="254.666656" gradientTransform="matrix(0.00668003,0,0,0.031253,6.232693,6.719392)">
<stop offset="0" style="stop-color:rgb(0%,0%,0%);stop-opacity:0.27451;"/>
<stop offset="1" style="stop-color:rgb(0%,0%,0%);stop-opacity:0;"/>
</linearGradient>
<linearGradient id="linear1" gradientUnits="userSpaceOnUse" x1="254" y1="-168.666672" x2="254" y2="233.5" >
<stop offset="0" style="stop-color:rgb(100%,54.11765%,39.607844%);stop-opacity:1;"/>
<stop offset="1" style="stop-color:rgb(100%,43.921569%,26.274511%);stop-opacity:1;"/>
</linearGradient>
<linearGradient id="linear2" gradientUnits="userSpaceOnUse" x1="254" y1="-168.666672" x2="254" y2="233.5" gradientTransform="matrix(0.0246734,0,0,0.0246734,1.671211,6.93268)">
<stop offset="0" style="stop-color:rgb(100%,83.529413%,30.980393%);stop-opacity:1;"/>
<stop offset="1" style="stop-color:rgb(100%,79.215688%,15.686275%);stop-opacity:1;"/>
</linearGradient>
<linearGradient id="linear3" gradientUnits="userSpaceOnUse" x1="254" y1="85.333336" x2="254" y2="-94.583336" gradientTransform="matrix(1,0,0,1,-11.906255,41.904667)">
<stop offset="0" style="stop-color:rgb(87.843138%,87.843138%,87.843138%);stop-opacity:1;"/>
<stop offset="1" style="stop-color:rgb(98.039216%,98.039216%,98.039216%);stop-opacity:1;"/>
</linearGradient>
</defs>
<g id="surface1">
<path style=" stroke:none;fill-rule:nonzero;fill:url(#radial0);" d="M 9.097656 14.015625 L 10.417969 14.015625 L 10.417969 13.355469 L 9.097656 13.355469 Z M 9.097656 14.015625 "/>
<path style=" stroke:none;fill-rule:nonzero;fill:url(#radial1);" d="M 6.78125 14.015625 L 5.457031 14.015625 L 5.457031 14.679688 L 6.78125 14.679688 Z M 6.78125 14.015625 "/>
<path style=" stroke:none;fill-rule:nonzero;fill:url(#radial2);" d="M 6.78125 14.015625 L 5.457031 14.015625 L 5.457031 13.355469 L 6.78125 13.355469 Z M 6.78125 14.015625 "/>
<path style=" stroke:none;fill-rule:nonzero;fill:url(#radial3);" d="M 9.097656 14.015625 L 10.417969 14.015625 L 10.417969 14.679688 L 9.097656 14.679688 Z M 9.097656 14.015625 "/>
<path style=" stroke:none;fill-rule:nonzero;fill:url(#linear0);" d="M 6.78125 13.851562 L 9.097656 13.851562 L 9.097656 14.679688 L 6.78125 14.679688 Z M 6.78125 13.851562 "/>
<path style="fill-rule:nonzero;fill:url(#linear1);stroke-width:3;stroke-linecap:round;stroke-linejoin:miter;stroke:rgb(20%,20%,20%);stroke-opacity:1;stroke-miterlimit:4;" d="M 253.975747 -168.629428 C 365.090136 -168.629428 455.081542 -78.638022 455.081542 32.476367 C 455.081542 143.465768 365.090136 233.457174 253.975747 233.457174 C 142.986345 233.457174 52.869951 143.465768 52.869951 32.476367 C 52.869951 -78.638022 142.986345 -168.629428 253.975747 -168.629428 Z M 253.975747 -168.629428 " transform="matrix(0.031253,0,0,0.031253,0,6.719392)"/>
<path style=" stroke:none;fill-rule:nonzero;fill:rgb(0%,0%,0%);fill-opacity:0.196078;" d="M 7.9375 14.015625 C 4.457031 14.015625 1.652344 11.214844 1.652344 7.734375 C 1.652344 7.710938 1.652344 7.691406 1.652344 7.671875 C 1.6875 11.125 4.476562 13.894531 7.9375 13.894531 C 11.398438 13.894531 14.191406 11.125 14.222656 7.671875 C 14.222656 7.691406 14.222656 7.710938 14.222656 7.734375 C 14.222656 11.214844 11.417969 14.015625 7.9375 14.015625 Z M 7.9375 14.015625 "/>
<path style=" stroke:none;fill-rule:nonzero;fill:rgb(100%,100%,100%);fill-opacity:0.392157;" d="M 7.9375 1.449219 C 4.457031 1.449219 1.652344 4.25 1.652344 7.734375 C 1.652344 7.753906 1.652344 7.773438 1.652344 7.792969 C 1.6875 4.339844 4.476562 1.570312 7.9375 1.570312 C 11.398438 1.570312 14.191406 4.339844 14.222656 7.792969 C 14.222656 7.773438 14.222656 7.753906 14.222656 7.734375 C 14.222656 4.25 11.417969 1.449219 7.9375 1.449219 Z M 7.9375 1.449219 "/>
<path style=" stroke:none;fill-rule:nonzero;fill:rgb(12.941177%,12.941177%,12.941177%);fill-opacity:1;" d="M 7.9375 1.402344 C 4.429688 1.402344 1.605469 4.226562 1.605469 7.734375 C 1.605469 11.238281 4.429688 14.0625 7.9375 14.0625 C 11.445312 14.0625 14.269531 11.238281 14.269531 7.734375 C 14.269531 4.226562 11.445312 1.402344 7.9375 1.402344 Z M 7.9375 1.496094 C 11.394531 1.496094 14.175781 4.277344 14.175781 7.734375 C 14.175781 11.1875 11.394531 13.96875 7.9375 13.96875 C 4.480469 13.96875 1.699219 11.1875 1.699219 7.734375 C 1.699219 4.277344 4.480469 1.496094 7.9375 1.496094 Z M 7.9375 1.496094 "/>
<path style=" stroke:none;fill-rule:nonzero;fill:url(#linear2);" d="M 7.9375 2.769531 C 10.679688 2.769531 12.898438 4.992188 12.898438 7.734375 C 12.898438 10.472656 10.679688 12.695312 7.9375 12.695312 C 5.199219 12.695312 2.976562 10.472656 2.976562 7.734375 C 2.976562 4.992188 5.199219 2.769531 7.9375 2.769531 Z M 7.9375 2.769531 "/>
<path style="fill-rule:nonzero;fill:url(#linear3);stroke-width:3;stroke-linecap:round;stroke-linejoin:miter;stroke:rgb(80.000001%,80.000001%,80.000001%);stroke-opacity:1;stroke-miterlimit:4;" d="M 210.354912 -53.140457 C 198.606034 -53.140457 189.231929 -43.641364 189.231929 -31.892486 L 189.231929 106.094337 C 189.231929 117.718227 198.606034 127.21732 210.354912 127.21732 C 220.978898 127.21732 307.34565 69.222858 355.841019 39.975651 C 363.840255 34.601164 363.840255 29.351666 355.841019 24.102167 C 307.34565 -1.645374 226.228396 -52.640505 210.354912 -53.140457 Z M 210.354912 -53.140457 " transform="matrix(0.031253,0,0,0.031253,0,6.719392)"/>
<path style=" stroke:none;fill-rule:nonzero;fill:rgb(100%,100%,100%);fill-opacity:0.996774;" d="M 6.574219 5.058594 C 6.207031 5.058594 5.914062 5.355469 5.914062 5.722656 L 5.914062 5.859375 C 5.914062 5.492188 6.207031 5.195312 6.574219 5.195312 C 7.070312 5.210938 9.605469 6.804688 11.121094 7.609375 C 11.210938 7.667969 11.269531 7.726562 11.292969 7.789062 C 11.335938 7.683594 11.28125 7.578125 11.121094 7.472656 C 9.605469 6.667969 7.070312 5.074219 6.574219 5.058594 Z M 6.574219 5.058594 "/>
<path style=" stroke:none;fill-rule:nonzero;fill:rgb(12.941177%,12.941177%,12.941177%);fill-opacity:1;" d="M 6.574219 5.011719 C 6.183594 5.011719 5.867188 5.328125 5.867188 5.722656 L 5.867188 10.035156 C 5.867188 10.425781 6.183594 10.742188 6.574219 10.742188 C 6.636719 10.742188 6.710938 10.710938 6.820312 10.65625 C 6.933594 10.605469 7.070312 10.53125 7.234375 10.4375 C 7.558594 10.253906 7.976562 10 8.429688 9.714844 C 9.335938 9.148438 10.390625 8.464844 11.144531 8.007812 L 11.148438 8.007812 C 11.277344 7.917969 11.355469 7.824219 11.355469 7.71875 C 11.355469 7.613281 11.277344 7.519531 11.148438 7.433594 L 11.144531 7.429688 C 10.386719 7.027344 9.375 6.429688 8.488281 5.929688 C 8.046875 5.675781 7.632812 5.453125 7.300781 5.285156 C 7.136719 5.203125 6.988281 5.136719 6.867188 5.089844 C 6.746094 5.042969 6.648438 5.015625 6.574219 5.011719 Z M 6.574219 5.105469 C 6.625 5.109375 6.714844 5.132812 6.832031 5.179688 C 6.949219 5.222656 7.09375 5.289062 7.261719 5.371094 C 7.589844 5.535156 8 5.757812 8.441406 6.007812 C 9.324219 6.507812 10.335938 7.109375 11.097656 7.511719 C 11.214844 7.589844 11.261719 7.660156 11.261719 7.71875 C 11.261719 7.777344 11.214844 7.847656 11.097656 7.929688 C 10.335938 8.386719 9.285156 9.070312 8.378906 9.636719 C 7.925781 9.917969 7.511719 10.175781 7.1875 10.355469 C 7.027344 10.449219 6.886719 10.523438 6.78125 10.574219 C 6.675781 10.625 6.59375 10.648438 6.574219 10.648438 C 6.234375 10.648438 5.960938 10.375 5.960938 10.035156 L 5.960938 5.722656 C 5.960938 5.378906 6.230469 5.105469 6.574219 5.105469 Z M 6.574219 5.105469 "/>
<path style=" stroke:none;fill-rule:nonzero;fill:rgb(0%,0%,0%);fill-opacity:0.235294;" d="M 7.9375 2.8125 C 5.191406 2.8125 2.976562 5.023438 2.976562 7.773438 C 2.976562 7.8125 2.976562 7.851562 2.976562 7.894531 C 3.046875 5.203125 5.234375 3.058594 7.9375 3.058594 C 10.644531 3.058594 12.832031 5.203125 12.898438 7.894531 C 12.898438 7.851562 12.898438 7.8125 12.898438 7.773438 C 12.898438 5.023438 10.6875 2.8125 7.9375 2.8125 Z M 7.9375 2.8125 "/>
<path style=" stroke:none;fill-rule:nonzero;fill:rgb(100%,100%,100%);fill-opacity:0.392157;" d="M 2.980469 7.898438 C 2.976562 7.953125 2.976562 8.007812 2.976562 8.0625 C 2.976562 10.8125 5.191406 13.023438 7.9375 13.023438 C 10.6875 13.023438 12.898438 10.8125 12.898438 8.0625 C 12.898438 8.007812 12.898438 7.953125 12.898438 7.898438 C 12.808594 10.570312 10.632812 12.695312 7.9375 12.695312 C 5.246094 12.695312 3.066406 10.570312 2.980469 7.898438 Z M 2.980469 7.898438 "/>
<path style="fill:none;stroke-width:3;stroke-linecap:round;stroke-linejoin:miter;stroke:rgb(20%,20%,20%);stroke-opacity:1;stroke-miterlimit:4;" d="M 253.975747 -126.383462 C 341.717368 -126.383462 412.710588 -55.265254 412.710588 32.476367 C 412.710588 120.093 341.717368 191.211209 253.975747 191.211209 C 166.359113 191.211209 95.240905 120.093 95.240905 32.476367 C 95.240905 -55.265254 166.359113 -126.383462 253.975747 -126.383462 Z M 253.975747 -126.383462 " transform="matrix(0.031253,0,0,0.031253,0,6.719392)"/>
<path style=" stroke:none;fill-rule:nonzero;fill:rgb(0%,0%,0%);fill-opacity:0.235294;" d="M 11.21875 7.890625 C 11.191406 7.917969 11.160156 7.941406 11.121094 7.96875 C 9.605469 8.882812 6.90625 10.695312 6.574219 10.695312 C 6.207031 10.695312 5.914062 10.398438 5.914062 10.035156 L 5.914062 10.378906 C 5.914062 10.742188 6.207031 11.039062 6.574219 11.039062 C 6.90625 11.039062 9.605469 9.226562 11.121094 8.3125 C 11.332031 8.171875 11.363281 8.03125 11.21875 7.890625 Z M 11.21875 7.890625 "/>
</g>
</svg>

<svg xmlns="http://www.w3.org/2000/svg" width="16pt" height="16pt" viewBox="0 0 16 16"><defs><radialGradient id="a" gradientUnits="userSpaceOnUse" cx="450.909" cy="189.579" fx="450.909" fy="189.579" r="21.167" gradientTransform="matrix(0 -.03907 -.07032 0 22.262 31.798)"><stop offset="0" stop-opacity=".314"/><stop offset=".222" stop-opacity=".275"/><stop offset="1" stop-opacity="0"/></radialGradient><radialGradient id="b" gradientUnits="userSpaceOnUse" cx="450.909" cy="189.579" fx="450.909" fy="189.579" r="21.167" gradientTransform="matrix(0 .03907 .07032 0 -6.385 -3.764)"><stop offset="0" stop-opacity=".314"/><stop offset=".222" stop-opacity=".275"/><stop offset="1" stop-opacity="0"/></radialGradient><radialGradient id="c" gradientUnits="userSpaceOnUse" cx="450.909" cy="189.579" fx="450.909" fy="189.579" r="21.167" gradientTransform="matrix(0 -.03907 .07032 0 -6.385 31.798)"><stop offset="0" stop-opacity=".314"/><stop offset=".222" stop-opacity=".275"/><stop offset="1" stop-opacity="0"/></radialGradient><radialGradient id="d" gradientUnits="userSpaceOnUse" cx="450.909" cy="189.579" fx="450.909" fy="189.579" r="21.167" gradientTransform="matrix(0 .03907 -.07032 0 22.262 -3.764)"><stop offset="0" stop-opacity=".314"/><stop offset=".222" stop-opacity=".275"/><stop offset="1" stop-opacity="0"/></radialGradient><linearGradient id="e" gradientUnits="userSpaceOnUse" x1="255.323" y1="233.5" x2="255.323" y2="254.667" gradientTransform="matrix(.00668 0 0 .03125 6.233 6.72)"><stop offset="0" stop-opacity=".275"/><stop offset="1" stop-opacity="0"/></linearGradient><linearGradient id="f" gradientUnits="userSpaceOnUse" x1="254" y1="-168.667" x2="254" y2="233.5"><stop offset="0" stop-color="#ff8a65"/><stop offset="1" stop-color="#ff7043"/></linearGradient><linearGradient id="g" gradientUnits="userSpaceOnUse" x1="254" y1="-168.667" x2="254" y2="233.5" gradientTransform="translate(80.21 10.237) scale(.68421)"><stop offset="0" stop-color="#ffd54f"/><stop offset="1" stop-color="#ffca28"/></linearGradient><linearGradient id="h" gradientUnits="userSpaceOnUse" x1="254" y1="85.333" x2="254" y2="-94.583" gradientTransform="translate(-11.906 41.905)"><stop offset="0" stop-color="#e0e0e0"/><stop offset="1" stop-color="#fafafa"/></linearGradient></defs><path d="M9.098 14.016h1.32v-.66h-1.32zm0 0" fill="url(#a)"/><path d="M6.781 14.016H5.457v.664h1.324zm0 0" fill="url(#b)"/><path d="M6.781 14.016H5.457v-.66h1.324zm0 0" fill="url(#c)"/><path d="M9.098 14.016h1.32v.664h-1.32zm0 0" fill="url(#d)"/><path d="M6.781 13.852h2.317v.828H6.78zm0 0" fill="url(#e)"/><path d="M253.976-168.63c111.114 0 201.106 89.992 201.106 201.106 0 110.99-89.992 200.981-201.106 200.981-110.99 0-201.106-89.991-201.106-200.98 0-111.115 90.116-201.106 201.106-201.106zm0 0" transform="matrix(.03125 0 0 .03125 0 6.72)" fill="url(#f)" stroke-width="3" stroke-linecap="round" stroke="#333"/><path d="M7.938 14.016a6.27 6.27 0 0 1-6.286-6.282v-.062a6.273 6.273 0 0 0 6.285 6.223 6.27 6.27 0 0 0 6.286-6.223v.062a6.27 6.27 0 0 1-6.286 6.282zm0 0" fill-opacity=".196"/><path d="M7.938 1.45a6.27 6.27 0 0 0-6.286 6.284v.059A6.273 6.273 0 0 1 7.937 1.57a6.27 6.27 0 0 1 6.286 6.223v-.059A6.27 6.27 0 0 0 7.937 1.45zm0 0" fill="#fff" fill-opacity=".392"/><path d="M7.938 1.402a6.318 6.318 0 0 0-6.333 6.332 6.318 6.318 0 0 0 6.332 6.329 6.318 6.318 0 0 0 6.333-6.329 6.318 6.318 0 0 0-6.332-6.332zm0 .094a6.223 6.223 0 0 1 6.238 6.238 6.222 6.222 0 0 1-6.239 6.235A6.222 6.222 0 0 1 1.7 7.734a6.223 6.223 0 0 1 6.239-6.238zm0 0" fill="#212121"/><path d="M253.976-105.135c75.992 0 137.612 61.619 137.612 137.611 0 75.868-61.62 137.487-137.612 137.487-75.993 0-137.612-61.619-137.612-137.487 0-75.992 61.619-137.611 137.612-137.611zm0 0" transform="matrix(.03125 0 0 .03125 0 6.72)" fill="url(#g)" stroke-width="3" stroke-linecap="round" stroke="#333"/><path d="M210.355-53.14c-11.749 0-21.123 9.499-21.123 21.248v137.986c0 11.624 9.374 21.123 21.123 21.123 10.624 0 96.99-57.994 145.486-87.241 8-5.375 8-10.624 0-15.874C307.346-1.645 226.228-52.64 210.355-53.14zm0 0" transform="matrix(.03125 0 0 .03125 0 6.72)" fill="url(#h)" stroke-width="3" stroke-linecap="round" stroke="#ccc"/><path d="M11.305 7.625a.484.484 0 0 1-.172.18c-1.516.914-4.215 2.726-4.547 2.726a.66.66 0 0 1-.66-.664v.145c0 .367.293.66.66.66.332.004 3.031-1.809 4.547-2.727.16-.105.219-.215.172-.32zm0 0" fill-opacity=".196"/><path d="M6.574 5.059a.66.66 0 0 0-.66.664v.136a.66.66 0 0 1 .66-.664c.496.016 3.031 1.61 4.547 2.414.09.059.149.118.172.18.043-.105-.012-.21-.172-.316-1.516-.805-4.05-2.399-4.547-2.414zm0 0" fill="#fff" fill-opacity=".702"/><path d="M6.574 5.012a.708.708 0 0 0-.707.71v4.313c0 .39.317.707.707.707.063 0 .137-.031.246-.086.114-.05.25-.125.414-.219a31.92 31.92 0 0 0 1.196-.722c.906-.567 1.96-1.25 2.715-1.707h.003c.13-.09.207-.184.207-.29 0-.105-.078-.198-.207-.284l-.003-.004c-.758-.403-1.77-1-2.657-1.5a25.91 25.91 0 0 0-1.187-.645 5.198 5.198 0 0 0-.434-.195 1.026 1.026 0 0 0-.293-.078zm0 .093c.051.004.14.028.258.075.117.043.262.11.43.191.328.164.738.387 1.18.637.882.5 1.894 1.101 2.656 1.504.117.078.164.148.164.207 0 .058-.047.129-.164.21-.762.458-1.813 1.141-2.72 1.708-.452.281-.866.539-1.19.718-.16.094-.301.168-.407.22a.766.766 0 0 1-.207.073.612.612 0 0 1-.613-.613V5.723a.61.61 0 0 1 .613-.618zm0 0" fill="#212121"/></svg>
